X: 972
T: the Holly Tree
B: O'Neill's 1850 #972
Z: Dan G. Petersen, dangp@post6.tele.dk
M: 6/8
L: 1/8
K: G
d |\
g>fg e2d | (B<d)d (B<d)d | g>fg e2d | (B<A)A A2d |\
g>fg e2d | (B<d)d (B<d)d | g>fg Te2d | (B<G)G G2 :|
|: B |\
G>AB (B<d)d | (B<A)A (B<d)d | G>AB (B<d)d | (B<A)A A2B |\
G>AB (B<d)d | (B<A)A (B<d)d | g>fg Te2d | (B<G)G G2 :|
